source/assets/img/quote-exotel.svg

<?xml version="1.0" encoding="UTF-8"?>
<svg width="113px" height="51px" viewBox="0 0 113 51" version="1.1" xmlns="http://www.w3.org/2000/svg" xmlns:xlink="http://www.w3.org/1999/xlink">
    <defs></defs>
    <g id="Page-1" stroke="none" stroke-width="1" fill="none" fill-rule="evenodd">
        <g id="Sponsor-Page" transform="translate(-836.000000, -2720.000000)" fill="#3A3A62">
            <g id="Exotel_Logo" transform="translate(836.000000, 2720.000000)">
                <path d="M66.5784551,22.2649853 C67.1530494,23.5857833 67.4403465,24.9750802 67.4403465,26.4328759 C67.4403465,27.8906715 67.1530494,29.2905067 66.5784551,30.6341377 C66.0269155,31.9075134 65.2448288,33.0474043 64.232195,34.0485411 L64.0956402,34.1855387 C63.1042876,35.0971001 62.0029819,35.8154597 60.7828557,36.3371047 C59.7028312,36.7937636 58.5766973,37.0677589 57.404454,37.1590907 C57.1047428,37.1801672 56.8050315,37.1907055 56.5070938,37.1907055 C56.2073825,37.1907055 55.9218588,37.1801672 55.6452023,37.1590907 C54.472959,37.0677589 53.3574657,36.7937636 52.2987225,36.3371047 C51.057315,35.8154597 49.9542359,35.0971001 48.9877115,34.1855387 C48.9433755,34.1416292 48.8972661,34.094207 48.8511567,34.0485411 C47.8385229,33.0474043 47.0564362,31.9075134 46.50667,30.6341377 C45.9303023,29.2905067 45.6447786,27.8906715 45.6447786,26.4328759 C45.6447786,24.9979131 45.9303023,23.6086162 46.50667,22.2649853 C47.0564362,20.9898531 47.8385229,19.8517187 48.8511567,18.8488255 C49.8389623,17.8476887 50.9899244,17.0748813 52.2987225,16.5268906 C53.6341222,15.9578234 55.0351392,15.6732898 56.5070938,15.6732898 C58.0003296,15.6732898 59.4261747,15.9578234 60.7828557,16.5268906 C62.072146,17.0748813 63.2213346,17.8476887 64.232195,18.8488255 C65.2448288,19.8517187 66.0269155,20.9898531 66.5784551,22.2649853 L66.5784551,22.2649853 Z M64.9220628,26.4328759 C64.9220628,25.3158179 64.6915157,24.2461823 64.232195,23.2222126 C63.8172102,22.2193194 63.2213346,21.3323473 62.4392479,20.5577836 C61.6819894,19.8060528 60.7828557,19.2141526 59.7489406,18.782083 C58.7150256,18.3482571 57.6332277,18.1322223 56.5070938,18.1322223 C55.3579051,18.1322223 54.2778807,18.3482571 53.2652469,18.782083 C52.2526131,19.2141526 51.3694403,19.8060528 50.6104084,20.5577836 C49.8283217,21.3323473 49.2306727,22.2193194 48.8156879,23.2222126 C48.4024765,24.2461823 48.1967576,25.3158179 48.1967576,26.4328759 C48.1967576,27.5710103 48.4024765,28.6529406 48.8156879,29.6769104 C49.2306727,30.6569706 49.8283217,31.5228661 50.6104084,32.2728405 C51.3694403,33.0474043 52.2526131,33.6393045 53.2652469,34.0485411 C53.3805204,34.094207 53.495794,34.1416292 53.6092941,34.1855387 C54.529709,34.5297893 55.4962334,34.7001582 56.5070938,34.7001582 C57.5179541,34.7001582 58.4844785,34.5297893 59.40312,34.1855387 C59.520167,34.1416292 59.6336671,34.094207 59.7489406,34.0485411 C60.7828557,33.6393045 61.6819894,33.0474043 62.4392479,32.2728405 C63.2213346,31.5228661 63.8172102,30.6569706 64.232195,29.6769104 C64.6915157,28.6529406 64.9220628,27.5710103 64.9220628,26.4328759 L64.9220628,26.4328759 Z M18.7523463,24.0881081 C18.4827835,23.2432891 18.1068144,22.4581871 17.6191186,21.7363148 C17.1314228,21.035519 16.558602,20.4330806 15.900656,19.9254866 C15.2178819,19.3950598 14.4641703,18.9840668 13.6342007,18.694264 C12.8060046,18.4290506 11.9405662,18.297322 11.0396591,18.297322 C10.0642676,18.297322 9.12611821,18.4290506 8.22521109,18.694264 C7.39701497,18.9840668 6.62911579,19.3827651 5.92151354,19.890359 C5.21568474,20.4190295 4.61803572,21.035519 4.13211337,21.7363148 C3.64441759,22.4581871 3.27908911,23.2432891 3.03612794,24.0881081 L18.7523463,24.0881081 Z M20.9797859,22.3879319 C21.5650209,23.7860107 21.8576383,25.2350245 21.8576383,26.7297041 L2.70626824,26.7297041 C2.72932295,27.744892 2.96164349,28.7214395 3.40145642,29.6628593 C3.81466775,30.5796899 4.38748862,31.4104578 5.11814558,32.1604322 C5.94634169,32.9332395 6.87207696,33.5233833 7.89535139,33.9343764 C7.94323425,33.9589657 8.00707806,33.9817986 8.07978907,34.0063879 C9.02857905,34.3699587 9.99155655,34.5491095 10.9651747,34.5491095 C11.8926834,34.5491095 12.8308327,34.3699587 13.7813962,34.0063879 C13.8771619,33.9589657 13.9871151,33.909787 14.1094824,33.8623648 C15.1824131,33.4267824 16.1808594,32.7628707 17.1065947,31.8723858 L18.9332371,33.7903532 C18.8605261,33.8623648 18.7878151,33.9343764 18.7133306,34.0063879 C17.6421733,35.0198194 16.4486487,35.803165 15.1327568,36.3599376 C14.0615995,36.7937636 12.9762547,37.058977 11.8784959,37.1555779 C11.5628237,37.1801672 11.2577921,37.1907055 10.9651747,37.1907055 C10.6495025,37.1907055 10.344471,37.1801672 10.0518535,37.1555779 C8.93103989,37.058977 7.87229668,36.8183529 6.87207696,36.4319492 C5.50830221,35.899766 4.28994946,35.1164203 3.21879218,34.0783995 C3.19396403,34.0538102 3.16913588,34.0327337 3.14430773,34.0063879 C2.1706896,32.9929565 1.42761857,31.8723858 0.915094636,30.6411632 C0.306804984,29.264161 0,27.8414929 0,26.3696462 C0,24.896043 0.281976835,23.4979643 0.842383628,22.1701407 C1.42761857,20.8897395 2.21857246,19.7568741 3.21879218,18.7662756 C4.24029317,17.7774335 5.41076305,17.0186771 6.72665495,16.4864939 C8.09042971,15.9314777 9.52868891,15.6539696 11.0396591,15.6539696 C12.500973,15.6539696 13.90199,15.9437724 15.2427101,16.5233779 C16.5337738,17.0783941 17.6794155,17.8617397 18.6778618,18.8751712 C19.6763081,19.913192 20.4442073,21.0829413 20.9797859,22.3879319 L20.9797859,22.3879319 Z M104.959227,6.56821403 L109.673028,6.56821403 L109.673028,32.7751653 C109.673028,33.138736 109.868106,33.3178868 110.258263,33.3178868 L111.646866,33.3178868 C111.98914,33.3178868 112.292398,33.46191 112.560187,33.7552256 C112.852805,34.0415156 113,34.3559076 113,34.694889 C113,35.5379516 112.547773,35.9612393 111.646866,35.9612393 L104.959227,35.9612393 C104.129257,35.9612393 103.716046,35.5379516 103.716046,34.694889 C103.716046,34.3559076 103.849054,34.0415156 104.118616,33.7552256 C104.363351,33.46191 104.643554,33.3178868 104.959227,33.3178868 L106.275118,33.3178868 C106.762814,33.3178868 107.004002,33.138736 107.004002,32.7751653 L107.004002,9.79117199 C107.004002,9.42760125 106.762814,9.24669408 106.275118,9.24669408 L104.959227,9.24669408 C104.643554,9.24669408 104.363351,9.10091451 104.118616,8.81286813 C103.849054,8.5476547 103.716046,8.23326261 103.716046,7.87144826 L103.716046,7.79943666 C103.740874,7.48504458 103.873882,7.1969982 104.118616,6.93002839 C104.363351,6.68940428 104.643554,6.56821403 104.959227,6.56821403 L104.959227,6.56821403 Z M71.5884209,6.56821403 L74.2574469,6.56821403 L74.2574469,15.6170856 L78.1678803,15.6170856 C78.5332088,15.6170856 78.8506544,15.7382759 79.1166703,15.9806564 C79.3862331,16.2687027 79.519241,16.5953895 79.519241,16.9572038 C79.519241,17.2944289 79.3862331,17.5965263 79.1166703,17.8617397 C78.8506544,18.1041202 78.5332088,18.2253105 78.1678803,18.2253105 L74.9881038,18.2253105 C74.500408,18.2253105 74.2574469,18.4413452 74.2574469,18.8751712 L74.2574469,28.4685207 C74.2574469,29.1201378 74.3922283,29.7471656 74.6582441,30.3513604 C74.9508616,30.9537989 75.3410182,31.4736875 75.828714,31.9075134 C76.3164098,32.3659287 76.8768166,32.7049101 77.508161,32.9209449 C78.1430522,33.1861583 78.8134122,33.3178868 79.519241,33.3178868 L79.519241,35.9612393 C78.4729119,35.9612393 77.4602781,35.7557428 76.48666,35.3447498 C75.5360966,34.9846918 74.6954864,34.4542649 73.9648294,33.7552256 C73.2093443,33.0526734 72.6365234,32.2570331 72.2463668,31.3630355 C71.8083273,30.423372 71.5884209,29.4573628 71.5884209,28.4685207 L71.5884209,18.8751712 C71.5884209,18.4413452 71.3827019,18.2253105 70.9677171,18.2253105 L69.7245362,18.2253105 C69.3095515,18.2253105 68.9690511,18.1041202 68.7012618,17.8617397 C68.431699,17.622872 68.2986911,17.3190182 68.2986911,16.9572038 C68.2986911,16.0649626 68.7757463,15.6170856 69.7245362,15.6170856 L71.5884209,15.6170856 L71.5884209,6.56821403 Z M91.6194168,18.297322 C90.6422518,18.297322 89.7041025,18.4290506 88.8031953,18.694264 C87.9749992,18.9840668 87.2071,19.3827651 86.5030447,19.890359 C85.7954424,20.4190295 85.1995668,21.035519 84.7100976,21.7363148 C84.2224018,22.4581871 83.8588468,23.2432891 83.6123387,24.0881081 L99.3285571,24.0881081 C99.0625412,23.2432891 98.6847986,22.4581871 98.1971029,21.7363148 C97.7094071,21.035519 97.1383596,20.4330806 96.4804137,19.9254866 C95.7976396,19.3950598 95.0421545,18.9840668 94.2139584,18.694264 C93.3839888,18.4290506 92.5203239,18.297322 91.6194168,18.297322 L91.6194168,18.297322 Z M87.3046392,16.4864939 C88.6701874,15.9314777 90.1066732,15.6539696 91.6194168,15.6539696 C93.0807307,15.6539696 94.4799743,15.9437724 95.8206943,16.5233779 C97.1117581,17.0783941 98.2591732,17.8617397 99.2558461,18.8751712 C100.256066,19.913192 101.022192,21.0829413 101.559544,22.3879319 C102.143005,23.7860107 102.437396,25.2350245 102.437396,26.7297041 L83.2842525,26.7297041 C83.3090806,27.744892 83.5396277,28.7214395 83.9812141,29.6628593 C84.3944254,30.5796899 84.9654729,31.4104578 85.6961298,32.1604322 C86.5243259,32.9332395 87.4518346,33.5233833 88.4751091,33.9343764 C89.4735554,34.3453694 90.4986032,34.5491095 91.5449324,34.5491095 C92.5930349,34.5491095 93.6393641,34.3190236 94.6874666,33.8623648 C95.7603974,33.4267824 96.7588437,32.7628707 97.6863524,31.8723858 L99.5129948,33.7903532 C98.3921812,34.9003855 97.1241721,35.7557428 95.7125145,36.3599376 C94.370021,36.9131974 92.9831916,37.1907055 91.5449324,37.1907055 C90.1066732,37.1907055 88.7428984,36.9395431 87.4518346,36.4319492 C86.0862864,35.899766 84.8679337,35.1164203 83.795003,34.0783995 C82.7983301,33.0403787 82.030431,31.8934624 81.4930789,30.6411632 C80.8847892,29.264161 80.5797577,27.8414929 80.5797577,26.3696462 C80.5797577,24.896043 80.8599611,23.4979643 81.4185944,22.1701407 C82.0056028,20.8897395 82.7983301,19.7568741 83.795003,18.7662756 C84.8182774,17.7774335 85.9887473,17.0186771 87.3046392,16.4864939 Z M45.0251389,16.7204438 C45.037553,16.730982 45.0464202,16.7415203 45.0588342,16.753815 C45.3514517,17.054156 45.4684987,17.4827128 45.4135221,18.0394854 C45.2893813,18.7525758 44.8336075,19.1073647 44.0479739,19.1073647 L43.3049029,19.1073647 C42.8118868,19.1301976 42.3844879,19.2250422 42.0244797,19.3918983 C41.7212216,19.5359215 41.4676198,19.7308797 41.2654478,19.9767729 L35.6755673,28.8605448 C35.468075,29.2276283 35.4769422,29.6105192 35.7021689,30.0109739 L41.0632757,38.6857365 C41.5740262,39.477864 42.4004489,39.8871007 43.5425437,39.91169 L44.1490599,39.91169 C44.5197087,39.91169 44.8619825,40.0469313 45.1776547,40.3121447 L45.2095766,40.3455159 C45.502194,40.6581516 45.6493895,40.997133 45.6493895,41.3659729 C45.6493895,41.7892606 45.4915534,42.1387803 45.1776547,42.4180447 L45.2095766,42.4180447 C44.8726231,42.6850146 44.5197087,42.8184995 44.1490599,42.8184995 L40.3805016,42.8184995 L34.0156282,32.6648646 C33.8152296,32.3873565 33.5935497,32.3873565 33.3488151,32.6648646 L27.7021846,41.8243882 C25.8507141,44.8822464 24.001017,47.941861 22.147773,50.9997192 L17.7638313,50.9997192 C16.8646976,50.9997192 16.414244,50.5149582 16.414244,49.5454362 C16.414244,49.1467379 16.559666,48.7954618 16.8522835,48.4951208 C17.0899244,48.2263946 17.3931825,48.0946661 17.7638313,48.0946661 L18.6079883,48.0946661 C18.7853322,48.0946661 18.953809,48.0893969 19.1116451,48.0771022 C19.8157004,47.9682067 20.36724,47.683673 20.7644904,47.2252578 L31.6055243,30.0109739 C31.8325246,29.6070064 31.8396183,29.2223591 31.6214853,28.8605448 L31.6055243,28.8254172 L26.0582065,19.9767729 C25.8524875,19.7291233 25.5988857,19.5359215 25.2991745,19.3918983 C24.9391663,19.2215294 24.5135409,19.1266849 24.0187514,19.1073647 L23.2774538,19.1073647 C22.4900468,19.1073647 22.0324995,18.7490631 21.9030384,18.0307035 C21.8462883,17.4827128 21.9686556,17.054156 22.26482,16.7450331 C22.2772341,16.7362512 22.2878747,16.7292257 22.2985153,16.7204438 L22.2985153,16.7116619 C22.381867,16.6326247 22.4776327,16.5641259 22.5858125,16.5026526 C22.8819768,16.3516039 23.2668131,16.2672976 23.7403214,16.2532466 L27.138231,16.2532466 L29.5997646,20.1928077 C30.6602812,21.8051649 31.8147902,23.6546334 33.0632914,25.7377005 C33.4729558,26.3120369 33.861339,26.317306 34.2266675,25.7535079 L37.8001475,20.0435154 L37.8090147,20.0435154 L40.1871967,16.2532466 L43.5744656,16.2532466 C44.0586145,16.2637849 44.4452243,16.3463347 44.7378417,16.5026526 C44.8495684,16.5588568 44.9471076,16.6308684 45.0251389,16.7204438 Z M44.921038,12.5411367 L43.0926222,14.0972897 C40.3154164,11.9738259 37.1480539,10.8760881 33.5905349,10.8040765 C30.3238598,10.8286659 27.268224,12.0230045 24.4165338,14.3870925 L22.660829,12.6500323 C26.3655435,9.80118335 30.1784378,8.49970551 34.1030588,8.74032962 C38.1216721,8.61913938 41.7288474,9.88724599 44.921038,12.5411367 Z M50.8780203,6.35165234 L49.3067532,7.79890975 C44.8713817,4.17900984 39.7301814,2.29792648 33.8831523,2.15214691 C28.5468737,2.05554599 23.3205484,4.0841653 18.2024028,8.23449208 L16.4112292,6.53255951 C16.6559638,6.33935767 16.898925,6.14615584 17.1436596,5.952954 C22.7707822,1.60942538 28.741952,-0.35772062 35.0536222,0.053272383 C41.4131752,0.464265386 46.6873835,2.56313991 50.8780203,6.35165234 Z M47.8809081,9.39194673 L46.1996877,10.9112157 C43.0323252,8.18531343 38.9871104,6.73805602 34.0658166,6.56768712 C29.5825622,6.42366393 25.3440425,7.99211159 21.3467105,11.2747865 L19.5927791,9.68174949 C23.856127,6.03726025 28.6674676,4.22818849 34.0285743,4.25277781 C39.5120484,4.59000284 44.1283107,6.30247369 47.8809081,9.39194673 Z" id="Combined-Shape"></path>
            </g>
        </g>
    </g>
</svg>

<svg width="113" height="51" viewBox="0 0 113 51" xmlns="http://www.w3.org/2000/svg"><path d="M66.578 22.265c.575 1.321.862 2.71.862 4.168 0 1.458-.287 2.858-.862 4.201-.552 1.273-1.334 2.413-2.346 3.414l-.137.137c-.991.912-2.093 1.63-3.313 2.152-1.08.457-2.206.731-3.378.822-.3.021-.599.032-.897.032-.3 0-.585-.011-.862-.032-1.172-.091-2.288-.365-3.346-.822-1.241-.522-2.344-1.24-3.311-2.152l-.137-.137c-1.013-1.001-1.795-2.141-2.344-3.414-.576-1.344-.862-2.743-.862-4.201 0-1.435.286-2.824.862-4.168.55-1.275 1.332-2.413 2.344-3.416.988-1.001 2.139-1.774 3.448-2.322 1.335-.569 2.736-.854 4.208-.854 1.493 0 2.919.285 4.276.854 1.289.548 2.438 1.321 3.449 2.322 1.013 1.003 1.795 2.141 2.346 3.416zm-1.656 4.168c0-1.117-.231-2.187-.69-3.211-.415-1.003-1.011-1.89-1.793-2.664-.757-.752-1.656-1.344-2.69-1.776-1.034-.434-2.116-.65-3.242-.65-1.149 0-2.229.216-3.242.65-1.013.432-1.896 1.024-2.655 1.776-.782.775-1.38 1.662-1.795 2.664-.413 1.024-.619 2.094-.619 3.211 0 1.138.206 2.22.619 3.244.415.98 1.013 1.846 1.795 2.596.759.775 1.642 1.366 2.655 1.776l.344.137c.92.344 1.887.515 2.898.515 1.011 0 1.977-.17 2.896-.515l.346-.137c1.034-.409 1.933-1.001 2.69-1.776.782-.75 1.378-1.616 1.793-2.596.459-1.024.69-2.106.69-3.244zm-46.17-2.345c-.27-.845-.646-1.63-1.133-2.352-.488-.701-1.061-1.303-1.718-1.811-.683-.53-1.436-.941-2.266-1.231-.828-.265-1.694-.397-2.595-.397-.975 0-1.914.132-2.814.397-.828.29-1.596.689-2.304 1.196-.706.529-1.303 1.145-1.789 1.846-.488.722-.853 1.507-1.096 2.352h15.716zm2.227-1.7c.585 1.398.878 2.847.878 4.342h-19.151c.023 1.015.255 1.992.695 2.933.413.917.986 1.748 1.717 2.498.828.773 1.754 1.363 2.777 1.774l.184.072c.949.364 1.912.543 2.885.543.928 0 1.866-.179 2.816-.543l.328-.144c1.073-.436 2.071-1.099 2.997-1.99l1.827 1.918-.22.216c-1.071 1.013-2.265 1.797-3.581 2.354-1.071.434-2.157.699-3.254.796-.316.025-.621.035-.913.035-.316 0-.621-.011-.913-.035-1.121-.097-2.18-.337-3.18-.724-1.364-.532-2.582-1.316-3.653-2.354l-.074-.072c-.974-1.013-1.717-2.134-2.229-3.365-.608-1.377-.915-2.8-.915-4.272 0-1.474.282-2.872.842-4.2.585-1.28 1.376-2.413 2.376-3.404 1.022-.989 2.192-1.748 3.508-2.28 1.364-.555 2.802-.833 4.313-.833 1.461 0 2.862.29 4.203.869 1.291.555 2.437 1.338 3.435 2.352.998 1.038 1.766 2.208 2.302 3.513zm83.979-15.82h4.714v26.207c0 .364.195.543.585.543h1.389c.342 0 .646.144.913.437.293.286.44.601.44.94 0 .843-.452 1.266-1.353 1.266h-6.688c-.83 0-1.243-.423-1.243-1.266 0-.339.133-.653.403-.94.245-.293.525-.437.841-.437h1.316c.488 0 .729-.179.729-.543v-22.984c0-.364-.241-.544-.729-.544h-1.316c-.316 0-.596-.146-.841-.434-.27-.265-.403-.58-.403-.941v-.072c.025-.314.158-.602.403-.869.245-.241.525-.362.841-.362zm-33.371 0h2.669v9.049h3.91c.365 0 .683.121.949.364.27.288.403.615.403.977 0 .337-.133.639-.403.905-.266.242-.583.364-.949.364h-3.18c-.488 0-.731.216-.731.65v9.593c0 .652.135 1.279.401 1.883.293.602.683 1.122 1.17 1.556.488.458 1.048.797 1.679 1.013.635.265 1.305.397 2.011.397v2.643c-1.046 0-2.059-.205-3.033-.616-.951-.36-1.791-.89-2.522-1.59-.755-.703-1.328-1.498-1.718-2.392-.438-.94-.658-1.906-.658-2.895v-9.593c0-.434-.206-.65-.621-.65h-1.243c-.415 0-.755-.121-1.023-.364-.27-.239-.403-.543-.403-.905 0-.892.477-1.34 1.426-1.34h1.864v-9.049zm20.031 11.729c-.977 0-1.915.132-2.816.397-.828.29-1.596.689-2.3 1.196-.708.529-1.303 1.145-1.793 1.846-.488.722-.851 1.507-1.098 2.352h15.716c-.266-.845-.644-1.63-1.131-2.352-.488-.701-1.059-1.303-1.717-1.811-.683-.53-1.438-.941-2.266-1.231-.83-.265-1.694-.397-2.595-.397zm-4.315-1.811c1.366-.555 2.802-.833 4.315-.833 1.461 0 2.861.29 4.201.869 1.291.555 2.438 1.338 3.435 2.352 1 1.038 1.766 2.208 2.304 3.513.583 1.398.878 2.847.878 4.342h-19.153c.025 1.015.255 1.992.697 2.933.413.917.984 1.748 1.715 2.498.828.773 1.756 1.363 2.779 1.774.998.411 2.023.615 3.07.615 1.048 0 2.094-.23 3.143-.687 1.073-.436 2.071-1.099 2.999-1.99l1.827 1.918c-1.121 1.11-2.389 1.965-3.8 2.57-1.342.553-2.729.831-4.168.831-1.438 0-2.802-.251-4.093-.759-1.366-.532-2.584-1.316-3.657-2.354-.997-1.038-1.765-2.185-2.302-3.437-.608-1.377-.913-2.8-.913-4.272 0-1.474.28-2.872.839-4.2.587-1.28 1.38-2.413 2.376-3.404 1.023-.989 2.194-1.748 3.51-2.28zm-42.28.234l.034.033c.293.3.41.729.355 1.286-.124.713-.58 1.068-1.366 1.068h-.743c-.493.023-.92.118-1.28.285-.303.144-.557.339-.759.585l-5.59 8.884c-.207.367-.199.75.027 1.15l5.361 8.675c.511.792 1.337 1.201 2.479 1.226h.607c.371 0 .713.135 1.029.4l.032.033c.293.313.44.652.44 1.02 0 .423-.158.773-.472 1.052h.032c-.337.267-.69.4-1.061.4h-3.769l-6.365-10.154c-.2-.278-.422-.278-.667 0l-5.647 9.16c-1.851 3.058-3.701 6.117-5.554 9.175h-4.384c-.899 0-1.35-.485-1.35-1.454 0-.399.145-.75.438-1.05.238-.269.541-.4.912-.4h.844l.504-.018c.704-.109 1.256-.393 1.653-.852l10.841-17.214c.227-.404.234-.789.016-1.15l-.016-.035-5.547-8.849c-.206-.248-.459-.441-.759-.585-.36-.17-.786-.265-1.28-.285h-.741c-.787 0-1.245-.358-1.374-1.077-.057-.548.066-.977.362-1.286l.034-.025v-.009c.083-.079.179-.148.287-.209.296-.151.681-.235 1.155-.249h3.398l2.462 3.94c1.061 1.612 2.215 3.462 3.464 5.545.41.574.798.58 1.163.016l3.573-5.71h.009l2.378-3.79h3.387c.484.011.871.093 1.163.249.112.056.209.128.287.218zm-.104-4.179l-1.828 1.556c-2.777-2.123-5.945-3.221-9.502-3.293-3.267.025-6.322 1.219-9.174 3.583l-1.756-1.737c3.705-2.849 7.518-4.15 11.442-3.91 4.019-.121 7.626 1.147 10.818 3.801zm5.957-6.189l-1.571 1.447c-4.435-3.62-9.577-5.501-15.424-5.647-5.336-.097-10.563 1.932-15.681 6.082l-1.791-1.702.732-.58c5.627-4.344 11.598-6.311 17.91-5.9 6.36.411 11.634 2.51 15.824 6.298zm-2.997 3.04l-1.681 1.519c-3.167-2.726-7.213-4.173-12.134-4.344-4.483-.144-8.722 1.424-12.719 4.707l-1.754-1.593c4.263-3.644 9.075-5.454 14.436-5.429 5.483.337 10.1 2.05 13.852 5.139z" fill="#3A3A62"/></svg>
